src/img/icon--support.svg

<svg width="34" height="34" viewBox="0 0 34 34" fill="none" xmlns="http://www.w3.org/2000/svg">
<path d="M17 0C7.6262 0 0 7.6262 0 17V24.0431C0 25.7839 1.5249 27.2 3.4 27.2H5.1C6.0401 27.2 6.8 26.4384 6.8 25.5V16.7569C6.8 15.8185 6.0401 15.0569 5.1 15.0569H3.5564C4.5016 8.4779 10.1626 3.4 17 3.4C23.8374 3.4 29.4984 8.4779 30.4436 15.0569H28.9C27.9599 15.0569 27.2 15.8185 27.2 16.7569V27.2C27.2 29.0751 25.6751 30.6 23.8 30.6H20.4V28.9H13.6V34H23.8C27.5502 34 30.6 30.9502 30.6 27.2C32.4751 27.2 34 25.7839 34 24.0431V17C34 7.6262 26.3738 0 17 0Z" fill="black"/>
</svg>

<svg width="34" height="34" fill="none" xmlns="http://www.w3.org/2000/svg"><path d="M17 0C7.626 0 0 7.626 0 17v7.043c0 1.74 1.525 3.157 3.4 3.157h1.7a1.7 1.7 0 0 0 1.7-1.7v-8.743a1.7 1.7 0 0 0-1.7-1.7H3.556C4.502 8.477 10.163 3.4 17 3.4c6.837 0 12.498 5.078 13.444 11.657H28.9a1.7 1.7 0 0 0-1.7 1.7V27.2c0 1.875-1.525 3.4-3.4 3.4h-3.4v-1.7h-6.8V34h10.2c3.75 0 6.8-3.05 6.8-6.8 1.875 0 3.4-1.416 3.4-3.157V17c0-9.374-7.626-17-17-17Z" fill="#000"/></svg>
